**kern	**silbe	**harmony	**chordsym	**phrase	**timestamp	**leadinstrument
*ICvox	*	*M4/4	*M4/4	*	*	*
*A:	*	*A:	*A:	*	*	*
*M4/4	*	*	*	*	*	*
*clefF4	*	*	*	*	*	*
r;	.	1r;	r	.	0	r
=1	=1	=1	=1	=1	=1	=1
*	*	*>A_intro	*>A_intro	*>A_intro	*>A_intro	*>A_intro
1r	.	1N	N	newline	0.302	bass voice
=2	=2	=2	=2	=2	=2	=2
4r	.	1AM	A:1 (A)	.	.	bass voice
8r	.	.	.	.	.	.
8E	Got	.	.	.	.	.
8r	.	.	.	.	.	.
8E	my-	.	.	.	.	.
8F#	-self	.	.	.	.	.
8E	a	.	.	.	.	.
=3	=3	=3	=3	=3	=3	=3
*	*	*>B_chorus	*>B_chorus	*>B_chorus	*>B_chorus	*>B_chorus
8G#q	_	.	.	.	.	.
4A	cry-	1AM	A:maj (A C# E)	newline	3.936	bass voice
4F#	-in',	.	.	.	.	.
4E	tal-	.	.	.	.	.
4C#	-kin',	.	.	.	.	.
=4	=4	=4	=4	=4	=4	=4
8G#q	_	.	.	.	.	.
4A	slee-	1AM	A:maj (A C# E)	.	.	bass voice
4F#	-pin',	.	.	.	.	.
4E	wal-	.	.	.	.	.
8C#	-kin'	.	.	.	.	.
8BB	_	.	.	.	.	.
=5	=5	=5	=5	=5	=5	=5
8A	li-	1AM	A:maj (A C# E)	.	.	bass voice
8G#q	_	.	.	.	.	.
4A	-ving	.	.	.	.	.
8A	doll	.	.	.	.	.
2AA	_	.	.	.	.	.
=6	=6	=6	=6	=6	=6	=6
4r	.	1AM	A:maj (A C# E)	.	.	bass voice
8r	.	.	.	.	.	.
8E	Got	.	.	.	.	.
8r	.	.	.	.	.	.
8E	to	.	.	.	.	.
8F#	do	.	.	.	.	.
8E	my	.	.	.	.	.
=7	=7	=7	=7	=7	=7	=7
8G#q	_	.	.	.	.	.
4A	best	1AM	A:maj (A C# E)	newline	11.494	bass voice
8F#	to	.	.	.	.	.
[8E	please	.	.	.	.	.
4E]	_	.	.	.	.	.
4C#	her,	.	.	.	.	.
=8	=8	=8	=8	=8	=8	=8
4A	just	1AM	A:maj (A C# E)	.	.	bass voice
4F#	cuz	.	.	.	.	.
4E	she's	.	.	.	.	.
8E	a	.	.	.	.	.
8C#	_	.	.	.	.	.
=9	=9	=9	=9	=9	=9	=9
8B	li-	1BMm	B:7 (B D# F# A)	.	.	bass voice
8A#q	_	.	.	.	.	.
4B	-ving	.	.	.	.	.
8B	doll	.	.	.	.	.
2BB	_	.	.	.	.	.
=10	=10	=10	=10	=10	=10	=10
4r	.	1EMm	E:7 (E G# B D)	.	.	bass voice
8r	.	.	.	.	.	.
[8E	Got	.	.	.	.	.
8E]	_	.	.	.	.	.
8E	a	.	.	.	.	.
8F#	ro-	.	.	.	.	.
8E	-vin'	.	.	.	.	.
=11	=11	=11	=11	=11	=11	=11
8G#q	_	.	.	.	.	.
4A	eye	1AM	A:maj (A C# E)	newline	19.054	bass voice
4F#	and	.	.	.	.	.
8E	that	.	.	.	.	.
4C#	is	.	.	.	.	.
8G#	why	.	.	.	.	.
=12	=12	=12	=12	=12	=12	=12
4A	_	1AM	A:maj (A C# E)	.	.	bass voice
4F#	she	.	.	.	.	.
8E	sa-	.	.	.	.	.
4C#	-tis-	.	.	.	.	.
8Aq	_	.	.	.	.	.
[8c	-fies	.	.	.	.	.
=13	=13	=13	=13	=13	=13	=13
4c]	_	1F#Mm	F#:7 (F# A# C# E)	.	.	bass voice
8cq	_	.	.	.	.	.
4c#	my	.	.	.	.	.
2F#	soul	.	.	.	.	.
=14	=14	=14	=14	=14	=14	=14
4r	.	1F#Mm	F#:7 (F# A# C# E)	.	.	bass voice
8r	.	.	.	.	.	.
16F#Q	_	.	.	.	.	.
8E	Got	.	.	.	.	.
8r	.	.	.	.	.	.
8E	the	.	.	.	.	.
8F#	one	.	.	.	.	.
8E	and	.	.	.	.	.
=15	=15	=15	=15	=15	=15	=15
8G#q	_	.	.	.	.	.
4A	on-	1AM	A:maj (A C# E)	newline	26.673	bass voice
4F#	-ly	.	.	.	.	.
8C#q	_	.	.	.	.	.
4E	wal-	.	.	.	.	.
4BB	-kin',	.	.	.	.	.
=16	=16	=16	=16	=16	=16	=16
4AA	tal-	1EM	E:maj (E G# B)	.	.	bass voice
4EE	-kin'	.	.	.	.	.
8r	.	.	.	.	.	.
8AA	li-	.	.	.	.	.
8AA	-ving	.	.	.	.	.
[8AA	doll	.	.	.	.	.
=17	=17	=17	=17	=17	=17	=17
4AA]	_	1AM	A:maj (A C# E)	.	.	bass voice
4r	.	.	.	.	.	.
2r	.	.	.	.	.	.
=18	=18	=18	=18	=18	=18	=18
8r	.	4AM	A:maj (A C# E)	.	.	bass voice
8AA	Well,	.	.	.	.	.
8AA	take	2.N	N	.	.	bass voice
8AA	a	.	.	.	.	.
8C#	look	.	.	.	.	.
8C#	at	.	.	.	.	.
4E	her	.	.	.	.	.
=19	=19	=19	=19	=19	=19	=19
*	*	*>C_bridge	*>C_bridge	*>C_bridge	*>C_bridge	*>C_bridge
4F#	hair	1DM	D:maj (D F# A)	newline	34.118	bass voice
4r	.	.	.	.	.	.
8r	.	.	.	.	.	.
4A	it's	.	.	.	.	.
[8A	real,	.	.	.	.	.
=20	=20	=20	=20	=20	=20	=20
8A]	_	1DM	D:maj (D F# A)	.	.	bass voice
8A	and	.	.	.	.	.
8AA	if	.	.	.	.	.
8AA	you	.	.	.	.	.
4D	don't	.	.	.	.	.
8F#	be-	.	.	.	.	.
8G#q	_	.	.	.	.	.
[8A	-lieve	.	.	.	.	.
=21	=21	=21	=21	=21	=21	=21
8A]	_	1AM	A:maj (A C# E)	.	.	bass voice
8F#	what	.	.	.	.	.
8E	I	.	.	.	.	.
[8A	say,	.	.	.	.	.
8A]	_	.	.	.	.	.
8G#q	_	.	.	.	.	.
4A	just	.	.	.	.	.
8F#	feel	.	.	.	.	.
=22	=22	=22	=22	=22	=22	=22
4E	_	1AM	A:maj (A C# E)	.	.	bass voice
8AA	Gon-	.	.	.	.	.
8AA	-na	.	.	.	.	.
8C#	lock	.	.	.	.	.
4E	her	.	.	.	.	.
[8F#	up	.	.	.	.	.
=23	=23	=23	=23	=23	=23	=23
8F#]	_	1DM	D:maj (D F# A)	newline	41.694	bass voice
8A	in	.	.	.	.	.
8F#	a	.	.	.	.	.
[8A	trunk	.	.	.	.	.
4A]	_	.	.	.	.	.
8r	.	.	.	.	.	.
8F#	so	.	.	.	.	.
=24	=24	=24	=24	=24	=24	=24
8A	no	1DM	D:maj (D F# A)	.	.	bass voice
4F#	big	.	.	.	.	.
[8A	hunk	.	.	.	.	.
8A]	_	.	.	.	.	.
8A	can	.	.	.	.	.
4F#	_	.	.	.	.	.
=25	=25	=25	=25	=25	=25	=25
16AQ	_	.	.	.	.	.
16BQ	_	.	.	.	.	.
8c#	steal	4EM	E:maj (E G# B)	.	.	bass voice
8B	her	.	.	.	.	.
8A	a-	2.N	N	.	.	bass voice
8E#	-way	.	.	.	.	.
4F#	_	.	.	.	.	.
4D	from	.	.	.	.	.
=26	=26	=26	=26	=26	=26	=26
8Dq	_	.	.	.	.	.
4BB	me	1N	N	.	.	bass voice
8r	.	.	.	.	.	.
8E	Got	.	.	.	.	.
8r	.	.	.	.	.	.
8E	my-	.	.	.	.	.
8F#	-self	.	.	.	.	.
8E	a	.	.	.	.	.
=27	=27	=27	=27	=27	=27	=27
*	*	*>B_chorus	*>B_chorus	*>B_chorus	*>B_chorus	*>B_chorus
8G#q	_	.	.	.	.	.
4A	cry-	1AM	A:maj (A C# E)	newline	49.017	bass voice
4F#	-in',	.	.	.	.	.
4E	tal-	.	.	.	.	.
4C#	-kin',	.	.	.	.	.
=28	=28	=28	=28	=28	=28	=28
8G#q	_	.	.	.	.	.
4A	slee-	1AM	A:maj (A C# E)	.	.	bass voice
4F#	-pin',	.	.	.	.	.
4E	wal-	.	.	.	.	.
4C#	-kin'	.	.	.	.	.
=29	=29	=29	=29	=29	=29	=29
8A	li-	1AM	A:maj (A C# E)	.	.	bass voice
8G#q	_	.	.	.	.	.
4A	-ving	.	.	.	.	.
8A	doll	.	.	.	.	.
2AA	_	.	.	.	.	.
=30	=30	=30	=30	=30	=30	=30
4r	.	1AM	A:maj (A C# E)	.	.	bass voice
8r	.	.	.	.	.	.
8E	Got	.	.	.	.	.
8r	.	.	.	.	.	.
8E	to	.	.	.	.	.
8F#	do	.	.	.	.	.
8E	my	.	.	.	.	.
=31	=31	=31	=31	=31	=31	=31
8G#q	_	.	.	.	.	.
4A	best	1AM	A:maj (A C# E)	newline	56.589	bass voice
8F#	to	.	.	.	.	.
16EQ	_	.	.	.	.	.
16F#Q	_	.	.	.	.	.
[8E	please	.	.	.	.	.
4E]	_	.	.	.	.	.
4C#	her,	.	.	.	.	.
=32	=32	=32	=32	=32	=32	=32
8G#q	_	.	.	.	.	.
4A	just	1AM	A:maj (A C# E)	.	.	bass voice
4F#	cuz	.	.	.	.	.
4E	she's	.	.	.	.	.
8E	a	.	.	.	.	.
8C#	_	.	.	.	.	.
=33	=33	=33	=33	=33	=33	=33
8B	li-	1BMm	B:7 (B D# F# A)	.	.	bass voice
8A#q	_	.	.	.	.	.
4B	-ving	.	.	.	.	.
8B	doll	.	.	.	.	.
2BB	_	.	.	.	.	.
=34	=34	=34	=34	=34	=34	=34
4r	.	1EMm	E:7 (E G# B D)	.	.	bass voice
8r	.	.	.	.	.	.
[8E	Got	.	.	.	.	.
8E]	_	.	.	.	.	.
8E	a	.	.	.	.	.
8F#	ro-	.	.	.	.	.
8E	-vin'	.	.	.	.	.
=35	=35	=35	=35	=35	=35	=35
8G#	eye	1AM	A:maj (A C# E)	newline	64.212	bass voice
8A	_	.	.	.	.	.
4F#	and	.	.	.	.	.
8E	that	.	.	.	.	.
4C#	is	.	.	.	.	.
8G#	why	.	.	.	.	.
=36	=36	=36	=36	=36	=36	=36
4A	_	1AM	A:maj (A C# E)	.	.	bass voice
4F#	she	.	.	.	.	.
8E	sa-	.	.	.	.	.
4C#	-tis-	.	.	.	.	.
8Aq	_	.	.	.	.	.
[8c	-fies	.	.	.	.	.
=37	=37	=37	=37	=37	=37	=37
4c]	_	1F#Mm	F#:7 (F# A# C# E)	.	.	bass voice
8cq	_	.	.	.	.	.
4c#	my	.	.	.	.	.
2F#	soul	.	.	.	.	.
=38	=38	=38	=38	=38	=38	=38
4r	.	1F#Mm	F#:7 (F# A# C# E)	.	.	bass voice
8r	.	.	.	.	.	.
16F#Q	_	.	.	.	.	.
8E	Got	.	.	.	.	.
8r	.	.	.	.	.	.
8E	the	.	.	.	.	.
8F#	one	.	.	.	.	.
8E	and	.	.	.	.	.
=39	=39	=39	=39	=39	=39	=39
8G#q	_	.	.	.	.	.
4A	on-	1AM	A:maj (A C# E)	newline	71.748	voice
4F#	-ly	.	.	.	.	.
8C#q	_	.	.	.	.	.
4E	wal-	.	.	.	.	.
4BB	-kin',	.	.	.	.	.
=40	=40	=40	=40	=40	=40	=40
4AA	tal-	1EM	E:maj (E G# B)	.	.	voice
4EE	-kin'	.	.	.	.	.
8r	.	.	.	.	.	.
8A	li-	.	.	.	.	.
8A	-ving	.	.	.	.	.
[8A	doll	.	.	.	.	.
=41	=41	=41	=41	=41	=41	=41
1A]	_	1AM	A:maj (A C# E)	.	.	voice
=42	=42	=42	=42	=42	=42	=42
8r	.	4AM	A:maj (A C# E)	.	.	voice
8c#	Mmm	.	.	.	.	.
4B	_	2.N	N	.	.	voice
[2A	_	.	.	.	.	.
=43	=43	=43	=43	=43	=43	=43
*	*	*>B_solo	*>B_solo	*>B_solo	*>B_solo	*>B_solo
2A]	_	1AM	A:maj (A C# E)	newline	79.259	guitar
2r	.	.	.	.	.	.
=44	=44	=44	=44	=44	=44	=44
1r	.	1AM	A:maj (A C# E)	.	.	guitar
=45	=45	=45	=45	=45	=45	=45
1r	.	1AM	A:maj (A C# E)	.	.	guitar
=46	=46	=46	=46	=46	=46	=46
1r	.	1AM	A:maj (A C# E)	.	.	guitar
=47	=47	=47	=47	=47	=47	=47
1r	.	1AM	A:maj (A C# E)	newline	86.851	guitar
=48	=48	=48	=48	=48	=48	=48
1r	.	1AM	A:maj (A C# E)	.	.	guitar
=49	=49	=49	=49	=49	=49	=49
1r	.	1BMm	B:7 (B D# F# A)	.	.	guitar
=50	=50	=50	=50	=50	=50	=50
1r	.	1EMm	E:7 (E G# B D)	.	.	guitar
=51	=51	=51	=51	=51	=51	=51
1r	.	1AM	A:maj (A C# E)	newline	94.339	guitar
=52	=52	=52	=52	=52	=52	=52
1r	.	1AM	A:maj (A C# E)	.	.	guitar
=53	=53	=53	=53	=53	=53	=53
1r	.	1F#Mm	F#:7 (F# A# C# E)	.	.	guitar
=54	=54	=54	=54	=54	=54	=54
1r	.	1F#Mm	F#:7 (F# A# C# E)	.	.	guitar
=55	=55	=55	=55	=55	=55	=55
1r	.	1AM	A:maj (A C# E)	newline	101.867	guitar
=56	=56	=56	=56	=56	=56	=56
1r	.	1EM	E:maj (E G# B)	.	.	guitar
=57	=57	=57	=57	=57	=57	=57
1r	.	1AM	A:maj (A C# E)	.	.	guitar
=58	=58	=58	=58	=58	=58	=58
8r	.	4AM	A:maj (A C# E)	.	.	guitar
8AA	Well,	.	.	.	.	.
8AA	take	2.N	N	.	.	guitar
8AA	a	.	.	.	.	.
8C#	look	.	.	.	.	.
8C#	at	.	.	.	.	.
4E	her	.	.	.	.	.
=59	=59	=59	=59	=59	=59	=59
*	*	*>C_bridge	*>C_bridge	*>C_bridge	*>C_bridge	*>C_bridge
4F#	hair	1DM	D:maj (D F# A)	newline	109.419	voice
4r	.	.	.	.	.	.
8r	.	.	.	.	.	.
4A	it's	.	.	.	.	.
[8A	real,	.	.	.	.	.
=60	=60	=60	=60	=60	=60	=60
8A]	_	1DM	D:maj (D F# A)	.	.	voice
8A	and	.	.	.	.	.
8AA	if	.	.	.	.	.
8AA	you	.	.	.	.	.
4D	don't	.	.	.	.	.
8F#	be-	.	.	.	.	.
8G#q	_	.	.	.	.	.
[8A	-lieve	.	.	.	.	.
=61	=61	=61	=61	=61	=61	=61
8A]	_	1AM	A:maj (A C# E)	.	.	voice
8F#	what	.	.	.	.	.
8E	I	.	.	.	.	.
8G#q	_	.	.	.	.	.
[8A	say,	.	.	.	.	.
8A]	_	.	.	.	.	.
8G#q	_	.	.	.	.	.
4A	just	.	.	.	.	.
16F#	feel	.	.	.	.	.
16E	_	.	.	.	.	.
=62	=62	=62	=62	=62	=62	=62
4r	.	1AM	A:maj (A C# E)	.	.	voice
8AA	Gon-	.	.	.	.	.
8AA	-na	.	.	.	.	.
8C#	lock	.	.	.	.	.
4E	her	.	.	.	.	.
[8F#	up	.	.	.	.	.
=63	=63	=63	=63	=63	=63	=63
8F#]	_	1DM	D:maj (D F# A)	newline	117.015	voice
8A	in	.	.	.	.	.
8F#	a	.	.	.	.	.
[8A	trunk	.	.	.	.	.
4A]	_	.	.	.	.	.
8r	.	.	.	.	.	.
8F#	so	.	.	.	.	.
=64	=64	=64	=64	=64	=64	=64
8A	no	1DM	D:maj (D F# A)	.	.	voice
8Aq	_	.	.	.	.	.
4F#	big	.	.	.	.	.
[8A	hunk	.	.	.	.	.
8A]	_	.	.	.	.	.
8A	can	.	.	.	.	.
4F#	_	.	.	.	.	.
=65	=65	=65	=65	=65	=65	=65
16AQ	_	.	.	.	.	.
16BQ	_	.	.	.	.	.
8c#	steal	4EM	E:maj (E G# B)	.	.	voice
8B	her	.	.	.	.	.
8A	a-	2.N	N	.	.	voice
8E#	-way	.	.	.	.	.
4F#	_	.	.	.	.	.
4D	from	.	.	.	.	.
=66	=66	=66	=66	=66	=66	=66
8Dq	_	.	.	.	.	.
4BB	me	1N	N	.	.	voice
8r	.	.	.	.	.	.
8E	Got	.	.	.	.	.
8r	.	.	.	.	.	.
8E	my-	.	.	.	.	.
8F#	-self	.	.	.	.	.
8E	a	.	.	.	.	.
=67	=67	=67	=67	=67	=67	=67
*	*	*>B2_chorus	*>B2_chorus	*>B2_chorus	*>B2_chorus	*>B2_chorus
8G#q	_	.	.	.	.	.
4A	cry-	1AM	A:maj (A C# E)	newline	124.419	voice
16F#Q	_	.	.	.	.	.
16AQ	_	.	.	.	.	.
8F#	-in',	.	.	.	.	.
[8E	_	.	.	.	.	.
4E]	tal-	.	.	.	.	.
4C#	-kin',	.	.	.	.	.
=68	=68	=68	=68	=68	=68	=68
8G#q	_	.	.	.	.	.
4A	slee-	1AM	A:maj (A C# E)	.	.	voice
8F#	-pin',	.	.	.	.	.
8C#	_	.	.	.	.	.
4E	wal-	.	.	.	.	.
8C#	-kin'	.	.	.	.	.
8BB	_	.	.	.	.	.
=69	=69	=69	=69	=69	=69	=69
8A	li-	1AM	A:maj (A C# E)	.	.	voice
8G#q	_	.	.	.	.	.
4A	-ving	.	.	.	.	.
8A	doll	.	.	.	.	.
2AA	_	.	.	.	.	.
=70	=70	=70	=70	=70	=70	=70
4r	.	1AM	A:maj (A C# E)	.	.	voice
8r	.	.	.	.	.	.
8E	Got	.	.	.	.	.
8r	.	.	.	.	.	.
8E	to	.	.	.	.	.
8F#	do	.	.	.	.	.
8E	my	.	.	.	.	.
=71	=71	=71	=71	=71	=71	=71
8G#q	_	.	.	.	.	.
4A	best	1AM	A:maj (A C# E)	newline	132.036	voice
16F#Q	_	.	.	.	.	.
16AQ	_	.	.	.	.	.
8F#	to	.	.	.	.	.
[8E	please	.	.	.	.	.
4E]	_	.	.	.	.	.
4C#	her,	.	.	.	.	.
=72	=72	=72	=72	=72	=72	=72
8G#q	_	.	.	.	.	.
4A	just	1AM	A:maj (A C# E)	.	.	voice
4F#	cuz	.	.	.	.	.
4E	she's	.	.	.	.	.
8E	a	.	.	.	.	.
8C#	_	.	.	.	.	.
=73	=73	=73	=73	=73	=73	=73
8B	li-	1BMm	B:7 (B D# F# A)	.	.	voice
8A#q	_	.	.	.	.	.
4B	-ving	.	.	.	.	.
8B	doll	.	.	.	.	.
2BB	_	.	.	.	.	.
=74	=74	=74	=74	=74	=74	=74
4r	.	1EMm	E:7 (E G# B D)	.	.	voice
8r	.	.	.	.	.	.
[8E	Got	.	.	.	.	.
8E]	_	.	.	.	.	.
8E	a	.	.	.	.	.
8F#	ro-	.	.	.	.	.
8E	-vin'	.	.	.	.	.
=75	=75	=75	=75	=75	=75	=75
8G#	eye	1AM	A:maj (A C# E)	newline	139.621	voice
8A	_	.	.	.	.	.
4F#	and	.	.	.	.	.
8E	that	.	.	.	.	.
4C#	is	.	.	.	.	.
8G#	why	.	.	.	.	.
=76	=76	=76	=76	=76	=76	=76
4A	_	1AM	A:maj (A C# E)	.	.	voice
4F#	she	.	.	.	.	.
8E	sa-	.	.	.	.	.
4C#	-tis-	.	.	.	.	.
8Aq	_	.	.	.	.	.
[8c	-fies	.	.	.	.	.
=77	=77	=77	=77	=77	=77	=77
4c]	_	1F#Mm	F#:7 (F# A# C# E)	.	.	voice
8cq	_	.	.	.	.	.
4c#	my	.	.	.	.	.
[2F#	soul!	.	.	.	.	.
=78	=78	=78	=78	=78	=78	=78
4F#]	_	1F#Mm	F#:7 (F# A# C# E)	.	.	voice
8r	.	.	.	.	.	.
16F#Q	_	.	.	.	.	.
8E	Got	.	.	.	.	.
8r	.	.	.	.	.	.
8E	the	.	.	.	.	.
8F#	one	.	.	.	.	.
8E	and	.	.	.	.	.
=79	=79	=79	=79	=79	=79	=79
8G#q	_	.	.	.	.	.
4A	on-	1AM	A:maj (A C# E)	newline	147.138	voice
4F#	-ly	.	.	.	.	.
8C#q	_	.	.	.	.	.
4E	wal-	.	.	.	.	.
4BB	-kin',	.	.	.	.	.
=80	=80	=80	=80	=80	=80	=80
4AA	tal-	4EM	E:maj (E G# B)	.	.	voice
4AA	-kin'	2.N	N	.	.	voice
8r	.	.	.	.	.	.
8B	li-	.	.	.	.	.
8A	-ving	.	.	.	.	.
[8c	doll	.	.	.	.	.
=81	=81	=81	=81	=81	=81	=81
8c]	_	1N	N	.	.	voice
8B	_	.	.	.	.	.
[4A	_	.	.	.	.	.
2A_	_	.	.	.	.	.
=82	=82	=82	=82	=82	=82	=82
2.A]	_	1AM	A:maj6(9) (A C# E F# B)	.	.	voice
4r	.	.	.	.	.	.
r;	.	1r;	r	.	155.907	r
r;	.	1r;	r	.	158.833	r
*-	*-	*-	*-	*-	*-	*-
!!!BillboardChartDate: 1959/10/12
!!!BillboardPeak: 30
!!!BillboardWeeksOnChart: 13
!!!COC: Cliff Richard
!!!ENC: Nathaniel Condit-Schultz
!!!EST: Awating manual error checking and editing.
!!!OTL: Living Doll
!!!RDF**chordsym: original McGill chord annotation + (implied pitch class set, with bass pitch in first position)
!!!RDF**harmony: **recip + pitch class of root + harmonic quality
!!!RDF**leadinstrument: original McGill primary instrumentation annotation
!!!RDF**phrase: newline = linebreak in original McGill transcription
!!!RDF**timestamp: McGill audio timestamp in seconds
!!!RDT: 2017/01/12/
!!!SampleActualRank: 46
!!!SampleID#: 0740
!!!SampleTargetRank: 48
